X: 163
T:Mr Banister. HA.162
M:C
L:1/8
Q:1/4=140
S:Henry Atkinson's original MS,Hartburn,N'umberland,1694.
O:England
A:Hartburn,Northumberland
H:1/8
Z:vmp.Neil Brookes, Jan.2004
K:Dmin
a2 (ag) fgaA|d2c2 d2e2|fgaf b2e2|e4 d4:|!
|:e2 (ed) cdec|fedc BcdB|edec fedc|B4 A2 A>G|!
FAdF GBeG|AcfA BdgB|ceaf (ba)(gf)|e4d4:|]
